Adwaita++-Light/panel/24/ao-app-tray.svg

<svg height="24" width="24" xmlns="http://www.w3.org/2000/svg">
  <g fill="#444">
    <path d="m12.041016 3.9999996c-.325147-.0077-.647915.077679-.929688.2441406l-5.2226561 3.0898438c-.5494331.3249686-.8887119.9261769-.8886719 1.5761718v6.1796882c-.0000002.403272.1429115.778631.3730469 1.089844l13.4628911-7.9980478c-.149755-.3480549-.392378-.6511537-.72461-.8476562l-5.222656-3.0917969c-.257101-.1518688-.54904-.2348385-.845703-.2421875zm6.888672 4.4101562a1.7755407 1.8191524 0 0 1 .01367.052734c-.0044-.01781-.0088-.035102-.01367-.052734zm-13.4277349 7.9414062c.012756.01353.025877.02593.039063.03906a1.7755407 1.8191524 0 0 1 -.039063-.03906z"/>
    <path d="m18.848092 8.1757754-13.4873066 8.0093426a1.7755407 1.8191524 0 0 0 .5271257.480466l5.2241779 3.090613a1.7755407 1.8191524 0 0 0 1.775822 0l5.224178-3.090613a1.7755407 1.8191524 0 0 0 .887911-1.574993v-6.1812247a1.7755407 1.8191524 0 0 0 -.151908-.7335909z" opacity=".3"/>
  </g>
</svg>

<svg xmlns="http://www.w3.org/2000/svg" width="24" height="24" version="1.1">
 <defs>
  <style id="current-color-scheme" type="text/css">
   .ColorScheme-Text { color:#444444; } .ColorScheme-Highlight { color:#4285f4; }
  </style>
 </defs>
 <path style="fill:currentColor" class="ColorScheme-Text" d="m 12.041016,3.9999996 c -0.325147,-0.0077 -0.647915,0.077679 -0.929688,0.2441406 L 5.8886719,7.333984 C 5.3392388,7.6589526 4.99996,8.2601609 5,8.9101558 v 6.1796882 c -2e-7,0.403272 0.1429115,0.778631 0.3730469,1.089844 L 18.835938,8.1816402 C 18.686183,7.8335853 18.44356,7.5304865 18.111328,7.333984 L 12.888672,4.2421871 C 12.631571,4.0903183 12.339632,4.0073486 12.042969,3.9999996 Z m 6.888672,4.4101562 a 1.7755407,1.8191524 0 0 1 0.01367,0.052734 c -0.0044,-0.01781 -0.0088,-0.035102 -0.01367,-0.052734 z M 5.5019531,16.351562 c 0.012756,0.01353 0.025877,0.02593 0.039063,0.03906 a 1.7755407,1.8191524 0 0 1 -0.039063,-0.03906 z"/>
 <path style="opacity:0.3;fill:currentColor" class="ColorScheme-Text" d="M 18.848092,8.1757754 5.3607854,16.185118 a 1.7755407,1.8191524 0 0 0 0.5271257,0.480466 l 5.2241779,3.090613 a 1.7755407,1.8191524 0 0 0 1.775822,0 l 5.224178,-3.090613 A 1.7755407,1.8191524 0 0 0 19,15.090591 V 8.9093663 A 1.7755407,1.8191524 0 0 0 18.848092,8.1757754 Z"/>
</svg>
